X: 10501
M: 2/4
L: 1/16
K: F
V: 1 staves=3
z2 |\
fcAc BdcB | AcAc BdcB | AFAF BGBG | AFAF G4 |\
fcAc BdcB | AcAc BdcB | ABcd efge | .f2.f2.f2 :|
|: ef |\
gece gebg | afcf afba | gece geba | gfed c2 Bc |\
dBFB dBfd | cAFA cAfc | dfed | cBAG | F2F2F2 :|
V: 2
z2 |\
|: cd |\
ecGc ecge | fcAc fcgf | ecGc ecdc | BAcB A2z2 |\
V: 3 clef=bass middle=D
z2 |\
|: z2 |\


